X: 14927
T: Gavotenn Bro. Dardoup
R: polka
M: 2/4
K: Dmajor
dA|:df ff|df ff|e2 c2|d2 BA:|
|:df ff|df a2|f2 d2|B/c/d e>f|
g3 f|d2 df|e2 c2|d2 BA:|

